X:0725
M:C
L:1/8
Q:1/2=104
K:G
f|g2d=f ecAc|BdFA GFED|g2d=f ecAc|BdDf G2G
f|g2d=f ecAc|BdFA GFED|ced=f ecAc|BdFA G2G|]

